images/title.svg

<svg xmlns="http://www.w3.org/2000/svg" width="1400" height="122.403"><path fill="#5D504F" d="M75.076 35.129s4.697-35.106-36.592-35.106c-37.669 0-36.597 29.999-36.597 34.788s-1.895 26.399 30.954 35.768c32.994 9.411 22.339 34.94 7.167 34.94-14.333 0-15.939-9.26-15.939-21.868h-23.846c0 4.808-5.602 38.752 39.328 38.752 39.327 0 39.327-28.961 39.327-35.781 0-6.819 1.436-23.024-31.074-35.044-15.697-5.804-22.257-8.813-22.257-19.569s6.717-14.443 12.832-14.443c10.859 0 13.841 7.671 13.841 17.563h22.856z"/><path fill="#5D504F" d="M128.505 0c-24.06 0-40.385 10.21-40.385 60.081s13.122 62.287 40.385 62.287 40.251-11.662 40.251-62.287-16.191-60.081-40.251-60.081zm-.019 105.266c-12.248 0-16.394-8.946-16.394-44.877 0-35.932 5.898-43.288 16.394-43.288 10.496 0 16.501 6.813 16.501 43.288.001 36.475-4.254 44.877-16.501 44.877z"/><path fill="#5D504F" d="M837.274 0c-24.061 0-40.385 10.21-40.385 60.081s13.122 62.287 40.385 62.287c27.263 0 40.25-11.662 40.25-62.287.001-50.625-16.19-60.081-40.25-60.081zm-.019 105.266c-12.248 0-16.394-8.946-16.394-44.877 0-35.932 5.898-43.288 16.394-43.288s16.502 6.813 16.502 43.288c0 36.475-4.254 44.877-16.502 44.877z"/><polygon fill="#5D504F" points="183.324,2.342 183.324,120.622 205.351,120.622 205.351,26.218 226.713,120.622 245.26,120.622 266.287,26.218 266.287,120.502 288.484,120.502 288.484,2.321 253.061,2.321 235.904,85.505 218.698,2.364"/><polygon fill="#5D504F" points="891.515,2.342 891.515,120.622 913.541,120.622 913.541,26.218 934.904,120.622 953.451,120.622 974.478,26.218 974.478,120.502 996.674,120.502 996.674,2.321 961.251,2.321 944.095,85.505 926.889,2.364"/><polygon fill="#5D504F" points="305.56,2.28 305.56,120.56 373.289,120.56 373.289,101.013 329.328,101.013 329.328,69.229 369.139,69.229 369.139,49.682 329.738,49.682 329.738,21.866 371.629,21.866 371.629,2.28"/><polygon fill="#5D504F" points="1332.271,2.28 1332.271,120.56 1400,120.56 1400,101.013 1356.04,101.013 1356.04,69.229 1395.851,69.229 1395.851,49.682 1356.45,49.682 1356.45,21.866 1398.34,21.866 1398.34,2.28"/><polygon fill="#5D504F" points="609.104,120.5 609.104,2.32 636.589,2.32 665.68,83.306 665.68,2.32 687.537,2.32 687.537,120.5 660.431,120.5 630.764,36.947 630.764,120.5"/><path fill="#5D504F" d="M1147.351 2.225h23.846v82.571s-1.542 20.526 13.904 20.526l13.917-20.526v-82.476h23.846v82.466s-.051 37.585-37.756 37.585-37.757-26.79-37.757-37.385v-82.761z"/><path fill="#5D504F" d="M498.934 83.117c-1.009-20.821-18.274-20.845-18.274-20.845v-.332s19.684-.603 19.684-30.855c0-32.377-35.398-28.882-35.398-28.882h-40.054v118.38h23.788v-50.053h13.728c12.191 0 12.9 12.271 13.113 16.392.213 4.121 0 14.547.922 23.563.922 9.015 2.698 10.091 2.698 10.091h25.858v-1.003c-5.764-3.308-5.056-15.636-6.065-36.456zm-40.112-29.128h-10.068v-34.114h11.258c4.482 0 16.567.975 16.567 16.407s-10.38 17.707-17.757 17.707z"/><path fill="#5D504F" d="M569.485 2.321h-29.492l-31.294 118.181h24.846l5.329-24.855h31.347l5.713 24.855h24.847l-31.296-118.181zm-26.341 73.536l11.465-53.067 11.679 53.067h-23.144z"/><path fill="#5D504F" d="M740.787 2.38h-35.483v118.18h37.583c11.627 0 40.572 2.131 40.572-59.079 0-61.209-25.288-59.101-42.672-59.101zm-1.09 100.724h-10.616v-83.128h9.318c11.098 0 21.166-.566 21.166 39.49 0 40.057-6.652 43.638-19.868 43.638z"/><path fill="#5D504F" d="M1089.9 2.38h-35.483v118.18h37.583c11.628 0 40.572 2.131 40.572-59.079.001-61.209-25.286-59.101-42.672-59.101zm-1.089 100.724h-10.615v-83.128h9.318c11.098 0 21.166-.566 21.166 39.49-.001 40.057-6.654 43.638-19.869 43.638z"/><path fill="#5D504F" d="M1274.713 2.38h-35.483v118.18h37.583c11.628 0 40.572 2.131 40.572-59.079.001-61.209-25.286-59.101-42.672-59.101zm-1.089 100.724h-10.616v-83.128h9.318c11.099 0 21.166-.566 21.166 39.49 0 40.057-6.652 43.638-19.868 43.638z"/></svg>

<svg version="1.1" id="Layer_1" xmlns="http://www.w3.org/2000/svg" x="0px" y="0px"
	 width="1400px" height="122.403px">
<path fill="#5D504F" d="M75.076,35.129c0,0,4.697-35.106-36.592-35.106c-37.669,0-36.597,29.999-36.597,34.788
	S-0.008,61.21,32.841,70.579c32.994,9.411,22.339,34.94,7.167,34.94c-14.333,0-15.939-9.26-15.939-21.868H0.223
	c0,4.808-5.602,38.752,39.328,38.752c39.327,0,39.327-28.961,39.327-35.781c0-6.819,1.436-23.024-31.074-35.044
	c-15.697-5.804-22.257-8.813-22.257-19.569s6.717-14.443,12.832-14.443c10.859,0,13.841,7.671,13.841,17.563H75.076z"/>
<path fill="#5D504F" d="M128.505,0C104.445,0,88.12,10.21,88.12,60.081c0,49.871,13.122,62.287,40.385,62.287
	s40.251-11.662,40.251-62.287C168.756,9.456,152.565,0,128.505,0z M128.486,105.266c-12.248,0-16.394-8.946-16.394-44.877
	c0-35.932,5.898-43.288,16.394-43.288c10.496,0,16.501,6.813,16.501,43.288C144.988,96.864,140.733,105.266,128.486,105.266z"/>
<path fill="#5D504F" d="M837.274,0c-24.061,0-40.385,10.21-40.385,60.081c0,49.871,13.122,62.287,40.385,62.287
	c27.263,0,40.25-11.662,40.25-62.287C877.525,9.456,861.334,0,837.274,0z M837.255,105.266c-12.248,0-16.394-8.946-16.394-44.877
	c0-35.932,5.898-43.288,16.394-43.288s16.502,6.813,16.502,43.288C853.757,96.864,849.503,105.266,837.255,105.266z"/>
<polygon fill="#5D504F" points="183.324,2.342 183.324,120.622 205.351,120.622 205.351,26.218 226.713,120.622 245.26,120.622 
	266.287,26.218 266.287,120.502 288.484,120.502 288.484,2.321 253.061,2.321 235.904,85.505 218.698,2.364 "/>
<polygon fill="#5D504F" points="891.515,2.342 891.515,120.622 913.541,120.622 913.541,26.218 934.904,120.622 953.451,120.622 
	974.478,26.218 974.478,120.502 996.674,120.502 996.674,2.321 961.251,2.321 944.095,85.505 926.889,2.364 "/>
<polygon fill="#5D504F" points="305.56,2.28 305.56,120.56 373.289,120.56 373.289,101.013 329.328,101.013 329.328,69.229 
	369.139,69.229 369.139,49.682 329.738,49.682 329.738,21.866 371.629,21.866 371.629,2.28 "/>
<polygon fill="#5D504F" points="1332.271,2.28 1332.271,120.56 1400,120.56 1400,101.013 1356.04,101.013 1356.04,69.229 
	1395.851,69.229 1395.851,49.682 1356.45,49.682 1356.45,21.866 1398.34,21.866 1398.34,2.28 "/>
<polygon fill="#5D504F" points="609.104,120.5 609.104,2.32 636.589,2.32 665.68,83.306 665.68,2.32 687.537,2.32 687.537,120.5 
	660.431,120.5 630.764,36.947 630.764,120.5 "/>
<path fill="#5D504F" d="M1147.351,2.225h23.846v82.571c0,0-1.542,20.526,13.904,20.526s13.917-20.526,13.917-20.526V2.32h23.846
	c0,0,0,73.875,0,82.466s-0.051,37.585-37.756,37.585s-37.757-26.79-37.757-37.385C1147.351,74.389,1147.351,2.225,1147.351,2.225z"
	/>
<path fill="#5D504F" d="M498.934,83.117c-1.009-20.821-18.274-20.845-18.274-20.845V61.94c0,0,19.684-0.603,19.684-30.855
	c0-32.377-35.398-28.882-35.398-28.882h-40.054v118.38h23.788V70.53c0,0,1.537,0,13.728,0c12.191,0,12.9,12.271,13.113,16.392
	c0.213,4.121,0,14.547,0.922,23.563c0.922,9.015,2.698,10.091,2.698,10.091h25.858v-1.003
	C499.235,116.265,499.943,103.937,498.934,83.117z M458.822,53.989c-7.377,0-10.068,0-10.068,0V19.875c0,0,6.776,0,11.258,0
	c4.482,0,16.567,0.975,16.567,16.407C476.579,51.714,466.199,53.989,458.822,53.989z"/>
<path fill="#5D504F" d="M569.485,2.321h-29.492l-31.294,118.181h24.846l5.329-24.855h31.347l5.713,24.855h24.847L569.485,2.321z
	 M543.144,75.857l11.465-53.067l11.679,53.067H543.144z"/>
<path fill="#5D504F" d="M740.787,2.38c-13.128,0-35.483,0-35.483,0v118.18c0,0,25.956,0,37.583,0
	c11.627,0,40.572,2.131,40.572-59.079C783.459,0.272,758.171,2.38,740.787,2.38z M739.697,103.104c-8.715,0-10.361,0-10.616,0
	V19.976h9.318c11.098,0,21.166-0.566,21.166,39.49C759.565,99.523,752.913,103.104,739.697,103.104z"/>
<path fill="#5D504F" d="M1089.9,2.38c-13.128,0-35.483,0-35.483,0v118.18c0,0,25.956,0,37.583,0
	c11.628,0,40.572,2.131,40.572-59.079C1132.573,0.272,1107.286,2.38,1089.9,2.38z M1088.811,103.104c-8.715,0-10.36,0-10.615,0
	V19.976h9.318c11.098,0,21.166-0.566,21.166,39.49C1108.679,99.523,1102.026,103.104,1088.811,103.104z"/>
<path fill="#5D504F" d="M1274.713,2.38c-13.128,0-35.483,0-35.483,0v118.18c0,0,25.956,0,37.583,0
	c11.628,0,40.572,2.131,40.572-59.079C1317.386,0.272,1292.099,2.38,1274.713,2.38z M1273.624,103.104c-8.715,0-10.36,0-10.616,0
	V19.976h9.318c11.099,0,21.166-0.566,21.166,39.49C1293.492,99.523,1286.84,103.104,1273.624,103.104z"/>
</svg>
